X:2
T:Carraign Rua 
S:Kevin Henry, 07/2003
M:C
L:1/8
K:D
ag |: f2 df edBA | Bdef g2 ag | f2 df edBA | dBAF EF D2 :|
faaf d3 e | faaf g3 e | faaf bfaf | gfed Bd A2 |
faaf d3 e | faaf g3 a | bgaf gfed | Bdef g2 |]**



